assets/img/braze_icons/lock-03.svg

<svg fill="none" height="24" viewBox="0 0 24 24" width="24" xmlns="http://www.w3.org/2000/svg"><path clip-rule="evenodd" d="m12 2c-3.31371 0-6 2.68629-6 6v2.1503c-.28261.062-.55386.1521-.81596.2857-.75265.3835-1.36457.9954-1.74806 1.748-.2473.4854-.34586 1.0021-.39179 1.5642-.04421.5412-.0442 1.2055-.04419 2.0105v.4826c-.00001.805-.00002 1.4693.04419 2.0105.04593.5621.14449 1.0788.39179 1.5642.38349.7526.99541 1.3645 1.74806 1.748.48533.2473 1.00204.3459 1.56414.3918.5412.0442 1.20556.0442 2.01055.0442h6.48257c.805 0 1.4693 0 2.0105-.0442.5621-.0459 1.0788-.1445 1.5642-.3918.7526-.3835 1.3645-.9954 1.748-1.748.2473-.4854.3459-1.0021.3918-1.5642.0442-.5412.0442-1.2055.0442-2.0105v-.4826c0-.805 0-1.4693-.0442-2.0105-.0459-.5621-.1445-1.0788-.3918-1.5642-.3835-.7526-.9954-1.3645-1.748-1.748-.2621-.1336-.5334-.2237-.816-.2857v-2.1503c0-3.31371-2.6863-6-6-6zm4 8.0016v-2.0016c0-2.20914-1.7909-4-4-4-2.20914 0-4 1.79086-4 4v2.0016c.23771-.00161.49039-.0016.75869-.0016h6.48261c.2683 0 .521-.00001.7587.0016z" fill="#801ed7" fill-rule="evenodd"/></svg>

<svg width="24" height="24" viewBox="0 0 24 24" fill="none" xmlns="http://www.w3.org/2000/svg">
<path fill-rule="evenodd" clip-rule="evenodd" d="M12 2C8.68629 2 6 4.68629 6 8V10.1503C5.71739 10.2123 5.44614 10.3024 5.18404 10.436C4.43139 10.8195 3.81947 11.4314 3.43598 12.184C3.18868 12.6694 3.09012 13.1861 3.04419 13.7482C2.99998 14.2894 2.99999 14.9537 3 15.7587V16.2413C2.99999 17.0463 2.99998 17.7106 3.04419 18.2518C3.09012 18.8139 3.18868 19.3306 3.43598 19.816C3.81947 20.5686 4.43139 21.1805 5.18404 21.564C5.66937 21.8113 6.18608 21.9099 6.74818 21.9558C7.28938 22 7.95374 22 8.75873 22H15.2413C16.0463 22 16.7106 22 17.2518 21.9558C17.8139 21.9099 18.3306 21.8113 18.816 21.564C19.5686 21.1805 20.1805 20.5686 20.564 19.816C20.8113 19.3306 20.9099 18.8139 20.9558 18.2518C21 17.7106 21 17.0463 21 16.2413V15.7587C21 14.9537 21 14.2894 20.9558 13.7482C20.9099 13.1861 20.8113 12.6694 20.564 12.184C20.1805 11.4314 19.5686 10.8195 18.816 10.436C18.5539 10.3024 18.2826 10.2123 18 10.1503V8C18 4.68629 15.3137 2 12 2ZM16 10.0016V8C16 5.79086 14.2091 4 12 4C9.79086 4 8 5.79086 8 8V10.0016C8.23771 9.99999 8.49039 10 8.75869 10H15.2413C15.5096 10 15.7623 9.99999 16 10.0016Z" fill="#801ED7"/>
</svg>
